X:1
T:The Other Shore
T:Powell G. Fithian
T:The Other Shore
T:Public Domain
T:Public Domain
T:Public Domain
C:Powell G. Fithian
Z:Public Domain
%%score ( 1 2 ) ( 3 4 )
L:1/8
M:6/8
K:A
V:1 treble 
V:2 treble 
V:3 bass 
V:4 bass 
V:1
 [Ec] | [Ec]2 [DB] [DB]2 [CA] | [CA]2 [A,C] [A,C]2 [A,D] | [CE]2 [Ac] [GB]2 [EA] | F3- F2 [Fd] | %5
w: 1.~When|we have reached the|heav’n- ly plains, And|joined the hosts a-|bove, * One|
w: 2.~While|years e- ter- nal|roll a- long, Their|ev- er cease- less|round, * Like|
w: 3.~Then|we shall see as|we are seen, And|know as we are|known, * And|
 [Fd]2 [Ac] [Ac]2 [DB] | [DB]2 F F2 [B,G] | [CA]2 [CA] [^Dc]2 [DB] | [EB]3- [EB]2 [Ec] | %9
w: shall swell the rap-|turous strain, The song|sus’ love; When we|have * reached|
w: cean’s waves shall swell|the song, The glad,|ant sound; There life’s|fair * riv-|
w: the fields of fade-|less green, While gaz-|the throne; And when|are * tuned|
 [Ec]2 [DB] [DB]2 [CA] | [CA]2 [A,C] [A,C]2 [A,D] | [CE]2 [Ac] [GB]2 [EA] | F3- F2 [DF] | %13
w: the pearl- y gate,|And passed its por-|tals through, The saints,|with * ho-|
w: er, broad and deep,|Re- flects its gold-|en ray, Where eyes|have * nev-|
w: the harps of gold|To ev- ery bliss-|ful sound, And ag-|es * long|
 [DA]2 [DA] (BA)[DF] | [DF]2 [CE] [CA]2 [Ec] | [DB]2 [DB] [EA]2 [DG] | [CA]3- [CA]2 || %17
w: joy e- late, * Shall|their harps a- new.|||
w: learned to weep, * Where|shall ne’er de- cay.|~ Re- joice, re-|joice, *|
w: on- ward rolled, * Je-|shall king be crowned.|||
"^Refrain" E | z2 c [Ec]2 z | z2 [Ec] [Ec]2 [DB] | [Ec]2 [CA] (BA)[DF] | (C2 C [CE]2) [CA] | %22
w: |||||
w: for|Christ Him-|* is near,|His won- drous * love|feel, * * His|
w: |||||
 [CA]2 [B,G] [B,G]2 [CA] | (D2 D [DB]2) [DB] | [DB]2 [CA] [CA]2 [DB] | [Ec]3- [Ec]2 E | %26
w: ||||
w: der voice I hear,|~ * * And|at last we meet|* * with|
w: ||||
 z2 c [Ec]2 z | z2 [Ec] [Ec]2 [EB] | [=Gc]2 [Gc] [GB]2 [Gc] | (F2 F [Fd]2) [Fd] | %30
w: ||||
w: Him a-|* One song|shall swell the rap-|turous * * strains,|
w: ||||
 [F^d]2 [Fd] [Fd]2 [Fd] | [Ee]2 [Ec] [CA]2 [DF] | [CE]2 [Ec] [Ec]2 [DB] | [CA]3- [CA]2 |] %34
w: ||||
w: song of Je- sus’|love. * * *|||
w: ||||
V:2
 x | x6 | x6 | x6 | F3- F2 x | x6 | x2 F F2 x | x6 | x6 | x6 | x6 | x6 | F3- F2 x | x3 D2 x | x6 | %15
w: ||||song *||of Je-||||||ly *|tune||
w: ||||o- *||tri- umph-||||||er *|joys||
w: ||||walk *||ing on||||||have *|sus||
 x6 | x5 || x | E3- x3 | x6 | x3 D2 x | E3- x3 | x6 | B3- x3 | x6 | x6 | E3- x3 | x6 | x6 | %29
w: ||||||||||||||
w: |||self||I|ten-||when|||bove,|||
w: ||||||||||||||
 d3- x3 | x6 | x6 | x6 | x5 |] %34
w: |||||
w: The|||||
w: |||||
V:3
 [A,,A,] | [A,,A,]2 [A,,F,] [A,,F,]2 [A,,E,] | [A,,E,]2 [A,,E,] [A,,E,]2 [A,,F,] | %3
 [A,,E,]2 [A,,E,] [B,,E,]2 C, | D,3- D,2 [F,A,] | [F,A,]2 [E,A,] [E,A,]2 [D,F,] | %6
 [D,F,]2 [D,A,] [D,A,]2 [D,E,] | F,2 F, [B,,F,]2 [B,,F,] | [E,G,]3- [E,G,]2 [A,,A,] | %9
 [A,,A,]2 [A,,F,] [A,,F,]2 [A,,E,] | [A,,E,]2 [A,,E,] [A,,E,]2 [A,,F,] | %11
 [A,,E,]2 [A,,E,] [B,,E,]2 C, | D,3- D,2 [D,A,] | [D,F,]2 [D,F,] [D,F,]2 [D,F,] | %14
 [A,,F,]2 [A,,E,] [A,,E,]2 [A,,A,] | [D,F,]2 [D,F,] E,2 E, | [A,,E,]3- [A,,E,]2 || z | %18
 z2 [A,,A,] [A,,A,]2 A, | z2 A,, [A,,A,]2 [A,,F,] | [A,,A,]2 [A,,E,] [D,F,]2 [D,F,] | %21
 [A,,E,]3- [A,,E,]2 E, | E,2 E, E,2 E, | [E,G,]2 [E,G,] [E,G,]2 E, | %24
 [A,,E,]2 [A,,E,] [A,,E,]2 [A,,G,] | [A,,A,]2 [A,,A,] [A,,A,]2 z | z2 [A,,A,] [A,,A,]2 A, | %27
 z2 A,, [A,,A,]2 [A,,G,] | [A,,A,]2 [A,,A,] [C,A,]2 [A,,A,] | [D,A,]2 [D,A,] [D,A,]2 [D,A,] | %30
 [=C,A,]2 [C,A,] [C,A,]2 [C,A,] | [^C,A,]2 [A,,A,] [A,,E,]2 [A,,F,] | %32
 [A,,E,]2 [E,A,] [E,A,]2 [E,G,] | [A,,A,]3- [A,,A,]2 |] %34
V:4
 x | x6 | x6 | x5 C, | D,3- D,2 x | x6 | x6 | F,2 F, x3 | x6 | x6 | x6 | x5 C, | D,3- D,2 x | x6 | %14
 x6 | x3 E,2 E, | x5 || x | x6 | A,3- x3 | x6 | x5 E, | E,2 E, E,2 E, | x5 E, | x6 | x6 | x6 | %27
 A,3- x3 | x6 | x6 | x6 | x6 | x6 | x5 |] %34

